www/assets/icons/badge.svg

<svg width="24" height="24" viewBox="0 0 24 24" xmlns="http://www.w3.org/2000/svg" fill='currentColor'><path d="M20 7H15V4C15 2.9 14.1 2 13 2H11C9.9 2 9 2.9 9 4V7H4C2.9 7 2 7.9 2 9V20C2 21.1 2.9 22 4 22H20C21.1 22 22 21.1 22 20V9C22 7.9 21.1 7 20 7ZM9 12C9.83 12 10.5 12.67 10.5 13.5C10.5 14.33 9.83 15 9 15C8.17 15 7.5 14.33 7.5 13.5C7.5 12.67 8.17 12 9 12ZM12 18H6V17.25C6 16.25 8 15.75 9 15.75C10 15.75 12 16.25 12 17.25V18ZM13 9H11V4H13V9ZM18 16.5H14V15H18V16.5ZM18 13.5H14V12H18V13.5Z"/></svg>

<svg xmlns="http://www.w3.org/2000/svg" width="24" height="24" viewBox="0 0 24 24" fill='currentColor'><path d="M20 7h-5V4c0-1.1-.9-2-2-2h-2c-1.1 0-2 .9-2 2v3H4c-1.1 0-2 .9-2 2v11c0 1.1.9 2 2 2h16c1.1 0 2-.9 2-2V9c0-1.1-.9-2-2-2M9 12c.83 0 1.5.67 1.5 1.5S9.83 15 9 15s-1.5-.67-1.5-1.5S8.17 12 9 12m3 6H6v-.75c0-1 2-1.5 3-1.5s3 .5 3 1.5zm1-9h-2V4h2zm5 7.5h-4V15h4zm0-3h-4V12h4z"/></svg>
